src/32x32/places/folder-gruvbox-mix-green-wine.svg

<svg xmlns="http://www.w3.org/2000/svg" width="32" height="32" version="1">
 <rect style="opacity:0.2" width="28" height="18" x="2" y="11" rx="1.4" ry="1.4"/>
 <path style="fill:#72761e" d="M 2,22.6 C 2,23.376 2.6244,24 3.4,24 H 28.6 C 29.376,24 30,23.376 30,22.6 V 7.4 C 30,6.6244 29.376,6 28.6,6 H 16 C 13.9,6 13.2,3 11.1,3 H 3.4 C 2.6244,3 2,3.6244 2,4.4"/>
 <rect style="opacity:0.2" width="28" height="18" x="2" y="9" rx="1.4" ry="1.4"/>
 <rect style="fill:#dee2b6" width="24" height="11" x="4" y="8" rx="1.4" ry="1.4"/>
 <rect style="fill:#b0b846" width="28" height="18" x="2" y="10" rx="1.4" ry="1.4"/>
 <path style="opacity:0.1;fill:#dee2b6" d="M 3.4004,3 C 2.6248,3 2,3.6248 2,4.4004 V 5.4004 C 2,4.6248 2.6248,4 3.4004,4 H 11.1 C 13.2,4 13.9,7 16,7 H 28.6 C 29.375,7 30,7.6248 30,8.4004 V 7.4004 C 30,6.6248 29.375,6 28.6,6 H 16 C 13.9,6 13.2,3 11.1,3 Z"/>
 <path style="fill:#3b4439" d="M 13.599609 15 C 13.599609 15 13 15.625 13 16.875 C 13 18.233889 13.837164 19.378274 15 19.808594 L 15 23 L 14 23 L 14 23.572266 L 14 24 L 18 24 L 18 23.572266 L 18 23 L 17 23 L 17 19.808594 C 18.162836 19.378274 19 18.233889 19 16.875 C 19 15.625 18.400391 15 18.400391 15 L 13.599609 15 z"/>
</svg>

<?xml version="1.0" encoding="UTF-8"?>
<svg width="32" height="32" version="1" xmlns="http://www.w3.org/2000/svg">
 <rect x="2" y="11" width="28" height="18" rx="1.4" ry="1.4" opacity=".2"/>
 <path d="m2 22.6c0 0.776 0.6244 1.4 1.4 1.4h25.2c0.776 0 1.4-0.624 1.4-1.4v-15.2c0-0.7756-0.624-1.4-1.4-1.4h-12.6c-2.1 0-2.8-3-4.9-3h-7.7c-0.7756 0-1.4 0.6244-1.4 1.4" fill="#72761e"/>
 <rect x="2" y="9" width="28" height="18" rx="1.4" ry="1.4" opacity=".2"/>
 <rect x="4" y="8" width="24" height="11" rx="1.4" ry="1.4" fill="#dee2b6"/>
 <rect x="2" y="10" width="28" height="18" rx="1.4" ry="1.4" fill="#b0b846"/>
 <path d="m3.4004 3c-0.7756 0-1.4004 0.6248-1.4004 1.4004v1c0-0.7756 0.6248-1.4004 1.4004-1.4004h7.6996c2.1 0 2.8 3 4.9 3h12.6c0.775 0 1.4 0.6248 1.4 1.4004v-1c0-0.7756-0.625-1.4004-1.4-1.4004h-12.6c-2.1 0-2.8-3-4.9-3z" fill="#dee2b6" opacity=".1"/>
 <path d="m13.6 15s-0.59961 0.625-0.59961 1.875c0 1.3589 0.83716 2.5033 2 2.9336v3.1914h-1v0.57227 0.42773h4v-0.42773-0.57227h-1v-3.1914c1.1628-0.43032 2-1.5747 2-2.9336 0-1.25-0.59961-1.875-0.59961-1.875h-4.8008z" fill="#3b4439"/>
</svg>
